X:2
T:The Munster Jig
T:Jackson's Mistake
M:6/8
L:1/8
R:Double Jig
S:Rob Greenway <robgreenway:yahoo.com> IrishTradAccord 2005-4-15
Z:Rob Greenway
K:G
   D | ~G3 AGA | Bde gdB | GAB cBA | BGE EDE \
     | ~G3 AGA | Bde gdB | cBA BdB | AGF G2 :|
|: f | gfg efg | eag fed | gfg efg | afd def \
     | gfe agf | gfe d2B | cBA BdB | AGF G2 :|
